X: 8653
T: Cross Country
R: reel
M: 4/4
K: Dmajor
|:D3E FAdc|BAGF E2 D2|B,3A, G,A,B,G,|C3B, A,CD2|
D3E FAdc|BAGF E2 D2|B,3A, G,A,B,G,|A,2 C2 D2 z2:|
|:c3c Bccc|Bccc BAAA|g3g fggg|bggg f2 d2|
c3c Bccc|Bccc BAAA|g3g bggg|1 f2 d2 c2 z2:|2 f2 d2 d2 z2||

